X:167
T:Thrush in the Straw, The
T:Humours of Lisheen, The
R:jig
Z:id:hn-jig-167
M:6/8
K:G
efg edB|cBA BGE|~G3 BdB|BAG ABd|efg edB|cBA BGE|~G3 BdB|1 AGF GBd:|2 AGF G2D||
GBd ~g3|agf g2e|fed edB|AGA BGE|GBd ~g3|agf g2e|fed edB|1 AGF G2D:|2 AGF GBd||

